X:1
T:Title
%%score 1 { 2 | 3 }
L:1/8
Q:1/4=88
M:6/8
K:F
V:1 treble nm="Grand Piano, Soprano"
V:2 bass nm="Choir Pad, Something for Thee"
V:3 bass 
V:1
 C[CA][CG] [CF][CF][CG] | [CF][CF][CE]- [CE]2- [CE]/ z/ | [CE]/[DF]/[CG][CG] [CG] [EA]2 | %3
w: By~E.~H.~Packard * * * * *|||
 [GB] [FA]2- [FA]2- [FA]/ z/ | C[CA][CG] [CF][CF][EG] | [_EA][DB][DB]- [DB]3- | %6
w: |||
 [DB][DB][CA] [CG][CF][Ec] | [EG][CEA][CF]- [CF]3- | [CF]2 [Ac]- [Ac]2 [GB]- | %9
w: |||
 [GB][FA][GB]- [GB]3- | [GB]2 [GB]- [GB]2 [FA]- | [FA][EG][FA]- [FA]3- | [FA][FA][Fc] [FA][CF]F | %13
w: ||||
 [EG][_EA][DB] [DB]3- | [DB][DBd][Fc] F[CA][Ec] | [EG][CEA][CF]- [CF]3- | [CF]3 z3 |] %17
w: ||||
V:2
 A,CB, A,A,B, | A,B,B,- B,2- B,/ z/ | B,/A,/B,B, B,[K:treble] C2 | C C2- C2- C/ z/ | A,CB, A,A,B, | %5
 CB,F,- F,3- | F,F,F, B,A,G, | B,B,A,- A,3- | A,3 z3 | z2[K:treble] C CCC- | C3 z3 | z2 C CCC- | %12
 CC[K:bass]A, CA,A, | B,CB, F,3- | F,F,A, A,F,G, | B,B,A,- A,3- | A,3 z3 |] %17
V:3
 F,F,F, F,F,F, | F,G,G,- G,2- G,/ z/ | G,/F,/E,E, E,C,D, | E, F,2- F,2- F,/ z/ | F,F,F, F,F,F, | %5
 F,B,,B,,- B,,3- | B,,B,,C, C,C,C, | C,C,[F,,F,]- [F,,F,]3- | [F,,F,]3 z3 | z2 C, E,G,C,- | %10
 C,3 z3 | z2 F, C,A,,F,,- | F,,F,F, F,F,F, | F,F,B,, B,,3- | B,,B,,C, C,C,C, | %15
 C,C,[F,,F,]- [F,,F,]3- | [F,,F,]3 z3 |] %17

